X: 104102
Q:"Reel."
M: C
L: 1/8
K: D
|:\
d2AF (BA)GF | EFGA (FD)D2 :|\
(de)fg a2fd | g2bg e2cA |
(de)fg a2fd | egfe fddA |\
defg fafd | g2bg e2cA |\
d2AF (BA)GF | EFGA (FD)D2 |]


